lib/brands/logos/fed-ex.svg

<svg xmlns="http://www.w3.org/2000/svg" fill="none" aria-hidden="true" viewBox="0 0 197 69"><g id="FedEx"><g id="Group"><path id="Vector" fill="#FF5A00" d="M190.922 53.6679C190.922 50.7847 188.877 48.6735 186.061 48.6735C183.249 48.6735 181.202 50.7847 181.202 53.6679C181.202 56.5465 183.249 58.6542 186.061 58.6542C188.877 58.6542 190.922 56.5429 190.922 53.6679ZM184.784 53.9241V57.1863H183.73V49.9928H186.349C187.883 49.9928 188.587 50.6631 188.587 51.9696C188.587 52.7743 188.043 53.4118 187.343 53.5042V53.5346C187.951 53.6317 188.174 54.1744 188.3 55.1674C188.396 55.8107 188.523 56.9266 188.752 57.1886H187.505C187.215 56.5125 187.245 55.5557 187.021 54.7545C186.836 54.1451 186.511 53.9229 185.813 53.9229H184.789V53.9264L184.784 53.9241V53.9241ZM186.09 52.9942C187.114 52.9942 187.406 52.4491 187.406 51.9684C187.406 51.4 187.114 50.9508 186.09 50.9508H184.784V52.9965H186.09V52.9942ZM180.043 53.6679C180.043 50.1157 182.863 47.7144 186.056 47.7144C189.259 47.7144 192.075 50.1157 192.075 53.6679C192.075 57.2132 189.26 59.6168 186.056 59.6168C182.863 59.6168 180.043 57.2132 180.043 53.6679Z"/><path id="Vector_2" fill="#FF5A00" d="M159.203 58.5793L152.27 50.8046L145.399 58.5793H130.939L145.071 42.7024L130.939 26.8208H145.85L152.853 34.5358L159.591 26.8208H173.98L159.919 42.6357L174.176 58.5793H159.203ZM103.174 58.5793V8.54953H130.939V19.7011H114.935V26.8208H130.939V37.5512H114.935V47.3997H130.939V58.5793H103.174Z"/><path id="Vector_3" fill="#29007C" d="M91.4564 8.54953V29.0244H91.3265C88.7334 26.0441 85.4923 25.0055 81.7342 25.0055C74.0331 25.0055 68.2316 30.2444 66.1953 37.1652C63.8723 29.5379 57.8825 24.8628 49.0024 24.8628C41.7892 24.8628 36.0953 28.0992 33.1208 33.3744V26.8196H18.2135V19.7022H34.4835V8.55187H4.92505V58.5793H18.2135V37.5512H31.4587C31.0508 39.1682 30.8468 40.83 30.8517 42.4977C30.8517 52.9287 38.8229 60.259 49.0001 60.259C57.555 60.259 63.1974 56.2388 66.1789 48.9203H54.7899C53.2506 51.1228 52.081 51.7731 49.0013 51.7731C45.4315 51.7731 42.3506 48.6571 42.3506 44.968H65.5402C66.5462 53.255 73.0027 60.4005 81.864 60.4005C85.6864 60.4005 89.1861 58.5208 91.3254 55.3452H91.454V58.5863H103.17V8.55187H91.4564V8.54953V8.54953ZM42.7202 37.7009C43.4606 34.5218 45.9251 32.4445 49.0013 32.4445C52.3886 32.4445 54.7279 34.4575 55.342 37.7009H42.7202ZM84.346 50.966C80.0288 50.966 77.3456 46.9436 77.3456 42.7422C77.3456 38.2507 79.6802 33.9358 84.346 33.9358C89.1872 33.9358 91.116 38.253 91.116 42.7422C91.116 46.9974 89.0738 50.966 84.346 50.966Z"/></g></g></svg>

<svg xmlns="http://www.w3.org/2000/svg" fill="none" aria-hidden="true" viewBox="0 0 197 69"><path fill="#FF5A00" d="M190.922 53.668c0-2.883-2.045-4.995-4.861-4.995-2.812 0-4.859 2.112-4.859 4.995 0 2.879 2.047 4.986 4.859 4.986 2.816 0 4.861-2.111 4.861-4.986Zm-6.138.256v3.262h-1.054v-7.193h2.619c1.534 0 2.238.67 2.238 1.977 0 .804-.544 1.442-1.244 1.534v.03c.608.098.831.64.957 1.633.095.644.223 1.76.452 2.022h-1.247c-.29-.676-.261-1.633-.484-2.434-.185-.61-.51-.832-1.208-.832h-1.024v.003l-.005-.002Zm1.306-.93c1.023 0 1.316-.545 1.316-1.026 0-.568-.293-1.017-1.316-1.017h-1.306v2.045h1.306v-.002Zm-6.047.674c0-3.552 2.82-5.954 6.013-5.954 3.203 0 6.019 2.402 6.019 5.954 0 3.545-2.815 5.949-6.019 5.949-3.193 0-6.013-2.404-6.013-5.95Zm-20.84 4.912-6.933-7.775-6.872 7.774h-14.459l14.132-15.877-14.132-15.881h14.911l7.003 7.715 6.738-7.715h14.389l-14.061 15.815 14.257 15.943h-14.973Zm-56.029 0V8.55h27.765V19.7h-16.004v7.12h16.004v10.73h-16.004v9.85h16.004v11.18h-27.765Z"/><path fill="#29007C" d="M91.456 8.55v20.474h-.13c-2.593-2.98-5.834-4.019-9.592-4.019-7.7 0-13.502 5.24-15.539 12.16-2.323-7.627-8.313-12.302-17.193-12.302-7.213 0-12.907 3.236-15.881 8.511V26.82H18.213v-7.118h16.27V8.552H4.925v50.027h13.288V37.551H31.46a19.984 19.984 0 0 0-.607 4.947c0 10.43 7.97 17.76 18.148 17.76 8.555 0 14.197-4.02 17.179-11.338H54.79c-1.538 2.203-2.708 2.853-5.788 2.853-3.57 0-6.65-3.116-6.65-6.805h23.19c1.003 8.287 7.46 15.432 16.321 15.432 3.822 0 7.322-1.88 9.461-5.055h.129v3.241h11.716V8.552H91.456V8.55ZM42.72 37.7c.74-3.178 3.205-5.256 6.281-5.256 3.388 0 5.727 2.013 6.34 5.257h-12.62Zm41.626 13.266c-4.317 0-7-4.023-7-8.224 0-4.491 2.334-8.806 7-8.806 4.841 0 6.77 4.317 6.77 8.806 0 4.255-2.042 8.224-6.77 8.224Z"/></svg>
